src/assets/outline/TextBold.svg

<svg width="24" height="24" viewBox="0 0 24 24"  xmlns="http://www.w3.org/2000/svg">
<path d="M11.9999 12.75H4.87988C4.46988 12.75 4.12988 12.41 4.12988 12V4.5C4.12988 2.98 5.35988 1.75 6.87988 1.75H11.9999C15.0299 1.75 17.4999 4.22 17.4999 7.25C17.4999 10.28 15.0299 12.75 11.9999 12.75ZM5.61988 11.25H11.9999C14.2099 11.25 15.9999 9.46 15.9999 7.25C15.9999 5.04 14.2099 3.25 11.9999 3.25H6.87988C6.18988 3.25 5.62988 3.81 5.62988 4.5V11.25H5.61988Z" />
<path d="M14.3799 22.25H6.87988C5.35988 22.25 4.12988 21.02 4.12988 19.5V12C4.12988 11.59 4.46988 11.25 4.87988 11.25H14.3799C17.4099 11.25 19.8799 13.72 19.8799 16.75C19.8799 19.78 17.4099 22.25 14.3799 22.25ZM5.61988 12.75V19.5C5.61988 20.19 6.17988 20.75 6.86988 20.75H14.3699C16.5799 20.75 18.3699 18.96 18.3699 16.75C18.3699 14.54 16.5799 12.75 14.3699 12.75H5.61988Z" />
</svg>

<?xml version="1.0" encoding="UTF-8"?>
<svg width="24" height="24" viewBox="0 0 24 24" xmlns="http://www.w3.org/2000/svg">
 <path d="m12 12.75h-7.12c-0.41 0-0.75-0.34-0.75-0.75v-7.5c0-1.52 1.23-2.75 2.75-2.75h5.12c3.03 0 5.5 2.47 5.5 5.5s-2.47 5.5-5.5 5.5zm-6.38-1.5h6.38c2.21 0 4-1.79 4-4s-1.79-4-4-4h-5.12c-0.69 0-1.25 0.56-1.25 1.25v6.75h-0.01z"/>
 <path d="m14.38 22.25h-7.5c-1.52 0-2.75-1.23-2.75-2.75v-7.5c0-0.41 0.34-0.75 0.75-0.75h9.5c3.03 0 5.5 2.47 5.5 5.5s-2.47 5.5-5.5 5.5zm-8.76-9.5v6.75c0 0.69 0.56 1.25 1.25 1.25h7.5c2.21 0 4-1.79 4-4s-1.79-4-4-4h-8.75z"/>
</svg>
